images/icons/icon-heart.svg

<svg width="21" height="20" viewBox="0 0 21 20" fill="none" xmlns="http://www.w3.org/2000/svg">
<path d="M10.2928 19C9.99282 19 9.69282 18.9 9.49282 18.6C4.09282 12.5 2.79282 11.1 2.49282 10.7C1.79282 9.8 1.39282 8.6 1.39282 7.4C1.39282 4.4 3.79282 2 6.89282 2C8.19282 2 9.39282 2.5 10.3928 3.3C11.3928 2.5 12.6928 2 13.8928 2C16.8928 2 19.3928 4.4 19.3928 7.4C19.3928 8.7 18.8928 9.9 18.0928 10.8L11.0928 18.7C10.8928 18.9 10.6928 19 10.2928 19ZM4.29282 9.5C4.59282 9.9 7.79282 13.5 10.3928 16.4L16.5928 9.4C17.0928 8.9 17.2928 8.2 17.2928 7.4C17.2928 5.6 15.7928 4.1 13.9928 4.1C12.9928 4.1 11.9928 4.6 11.2928 5.4C10.9928 5.7 10.6928 5.8 10.3928 5.8C10.0928 5.8 9.79282 5.6 9.59282 5.4C8.89282 4.6 7.89282 4.1 6.89282 4.1C5.09282 4.1 3.59282 5.6 3.59282 7.4C3.49282 8.3 3.89282 9 4.29282 9.5C4.19282 9.5 4.19282 9.5 4.29282 9.5Z" fill="black"/>
</svg>

<svg xmlns="http://www.w3.org/2000/svg" width="21" height="20" fill="none" viewBox="0 0 21 20"><path fill="#000" d="M10.3 19a.9.9 0 0 1-.8-.4c-5.4-6.1-6.7-7.5-7-7.9A5.4 5.4 0 0 1 6.9 2c1.3 0 2.5.5 3.5 1.3a5.46 5.46 0 0 1 9 4.1c0 1.3-.5 2.5-1.3 3.4l-7 7.9c-.2.2-.4.3-.8.3Zm-6-9.5c.3.4 3.5 4 6.1 6.9l6.2-7c.5-.5.7-1.2.7-2 0-1.8-1.5-3.3-3.3-3.3-1 0-2 .5-2.7 1.3-.3.3-.6.4-.9.4-.3 0-.6-.2-.8-.4-.7-.8-1.7-1.3-2.7-1.3-1.8 0-3.3 1.5-3.3 3.3-.1.9.3 1.6.7 2.1-.1 0-.1 0 0 0Z"/></svg>
